src/icons/vim.svg

<svg viewBox="0 0 24 24" xmlns="http://www.w3.org/2000/svg">
  <path
    d="M13.4809 4.42501V3.94801L14.0239 3.37301H20.7459L21.2059 3.96501V5.44501L6.54388 20.628H4.63788L3.78187 20.152V6.00001H3.28888L2.79688 5.52401V3.98001L3.32288 3.37201H9.96487L10.4879 3.96601L10.5199 4.01401V5.47801L10.0759 6.16801H9.53287V10.771L14.3009 6.16701H14.0389L13.4789 5.49301"
    fill="#43A047"
  />
</svg>

<svg viewBox="0 0 24 24" xmlns="http://www.w3.org/2000/svg">
  <path
    d="M13.48 4.425v-.477l.543-.575h6.722l.46.592v1.48L6.543 20.628H4.637l-.856-.476V6h-.493l-.492-.476V3.98l.526-.608h6.642l.523.594.032.048v1.464l-.444.69h-.543v4.603L14.3 6.167h-.262l-.56-.674"
    style="fill: #43a047; stroke-width: 0.8523"
  />
</svg>
